build/img/svg/icon-mail.svg

<svg width="25" height="19" viewBox="0 0 25 19" fill="none" xmlns="http://www.w3.org/2000/svg">
<path d="M0.0509483 7.42773C2.48191 8.22962 2.64278 8.43151 2.64278 10.5557C2.64278 12.3073 2.66661 14.0561 2.64278 15.8049C2.64278 16.3992 2.78578 16.6267 3.45906 16.6238C9.5007 16.6011 15.5423 16.6011 21.584 16.6238C22.29 16.6238 22.3794 16.3395 22.3705 15.7708C22.3437 14.1187 22.3437 12.4637 22.3437 10.8087C22.3437 8.47132 22.3437 8.47132 24.9266 7.43342C24.9266 10.5841 24.9981 13.6893 24.8968 16.766C24.8461 18.2532 23.7319 18.984 21.8521 18.9897C16.6029 19.0096 11.3537 18.9897 6.10451 18.9897C4.91286 18.9897 3.72122 19.0295 2.52957 18.9556C1.04001 18.8646 0.0837186 18.0229 0.0539275 16.6295C0.000303393 13.5755 0.0509483 10.5244 0.0509483 7.42773Z" fill="white"/>
<path d="M24.949 3.36095C24.949 0.830172 24.1089 0.00269328 21.5677 0.00269328C15.5301 0.00269328 9.48247 0.00269328 3.42493 0.00269328C2.9305 -0.010938 2.43599 0.027204 1.95027 0.116436C1.42847 0.205891 0.956285 0.467729 0.616411 0.856085C0.276537 1.24444 0.0906479 1.73456 0.0913041 2.24058C0.03768 3.23583 -0.349605 4.30217 1.01483 5.08415C4.58977 7.09171 8.08725 9.24714 11.5817 11.3855C12.2669 11.8063 12.7496 11.8007 13.4377 11.3855C16.8995 9.26799 20.384 7.19408 23.8915 5.16377C24.7256 4.68605 25.1546 4.15999 24.949 3.36095ZM21.7703 3.64531C18.8746 5.36093 15.9869 7.08508 13.1071 8.81776C12.6006 9.12486 12.2461 9.01681 11.7784 8.73245C8.98992 7.02631 6.17764 5.38273 3.37429 3.70786C3.00786 3.48891 2.5312 3.30123 2.6593 2.76096C2.81124 2.11547 3.38323 2.41973 3.74966 2.41404C6.72877 2.3856 9.68405 2.39982 12.6513 2.39982C15.5708 2.39982 18.4873 2.39982 21.4069 2.39982C21.7316 2.39982 22.247 2.1439 22.3393 2.7638C22.4079 3.21877 22.1397 3.44057 21.7703 3.65952V3.64531Z" fill="white"/>
</svg>

<svg width="25" height="19" fill="none" xmlns="http://www.w3.org/2000/svg"><path d="M.05 7.428c2.432.802 2.593 1.004 2.593 3.128 0 1.751.024 3.5 0 5.249 0 .594.143.822.816.819 6.042-.023 12.083-.023 18.125 0 .706 0 .795-.284.787-.853-.027-1.652-.027-3.307-.027-4.962 0-2.338 0-2.338 2.583-3.376 0 3.151.071 6.256-.03 9.333-.05 1.487-1.165 2.218-3.045 2.224-5.25.02-10.498 0-15.747 0-1.192 0-2.384.04-3.575-.034-1.49-.091-2.446-.933-2.476-2.326C0 13.575.05 10.524.05 7.428z" fill="#fff"/><path d="M24.949 3.361c0-2.53-.84-3.358-3.381-3.358H3.425A7.083 7.083 0 001.95.116C1.428.206.956.468.616.856a2.1 2.1 0 00-.525 1.385c-.053.995-.44 2.061.924 2.843 3.575 2.008 7.072 4.163 10.567 6.302.685.42 1.168.415 1.856 0a501.828 501.828 0 0110.454-6.222c.834-.478 1.263-1.004 1.057-1.803zm-3.179.284a1522.74 1522.74 0 00-8.663 5.173c-.506.307-.86.199-1.329-.086-2.788-1.706-5.6-3.35-8.404-5.024-.366-.22-.843-.407-.715-.947.152-.646.724-.341 1.09-.347 2.98-.028 5.935-.014 8.902-.014h8.756c.325 0 .84-.256.932.364.069.455-.2.677-.569.896v-.015z" fill="#fff"/></svg>
